static/assets/images/tokens/sdola.svg

<svg width="256" height="256" viewBox="0 0 256 256" fill="none" xmlns="http://www.w3.org/2000/svg">
<path d="M128 256C198.934 256 256 198.934 256 128C256 57.0662 198.934 0 128 0C57.0662 0 0 57.0662 0 128C0 198.934 57.0662 256 128 256Z" fill="#FBBB54"/>
<path fill-rule="evenodd" clip-rule="evenodd" d="M141.828 50.4842C141.72 50.7504 140.753 53.2719 139.679 56.0872L137.727 61.206L126.369 61.2782C113.754 61.3585 112.486 61.2345 106.966 59.3812C105.562 58.9095 104.378 58.5667 104.337 58.6195C104.295 58.6726 103.438 60.8947 102.431 63.5579C101.424 66.221 89.9235 96.5396 76.8743 130.932C63.8254 165.325 53.0865 193.683 53.01 193.949C52.8783 194.406 53.8217 194.433 70.0582 194.433C86.3161 194.433 87.2353 194.459 87.0509 194.917C85.2036 199.508 80.332 212.709 80.4445 212.821C80.5277 212.904 84.525 212.971 89.3271 212.971H98.0582L98.342 212.349C98.4979 212.007 100.094 207.866 101.888 203.149L105.151 194.571L112.212 194.498C117.819 194.439 119.246 194.496 119.142 194.774C119.07 194.967 117.552 198.993 115.769 203.721C113.985 208.449 112.526 212.465 112.526 212.644C112.526 213.131 129.945 213.112 130.261 212.626C130.385 212.435 132.004 208.295 133.859 203.426L137.232 194.571L140.264 194.394C155.815 193.484 170.891 186.926 182.289 176.112C192.847 166.095 199.612 153.408 202.193 138.783C202.96 134.434 203.24 126.112 202.77 121.633C201.155 106.259 194.477 92.0414 183.822 81.2913C182.438 79.8952 181.306 78.6738 181.306 78.5773C181.306 78.4807 183.687 72.0955 186.597 64.388C189.507 56.6804 191.887 50.288 191.887 50.1832C191.887 50.0783 187.866 50.0252 182.951 50.0653L174.015 50.1383L170.509 59.4075C168.581 64.5056 166.982 68.7099 166.957 68.7503C166.931 68.7907 165.625 68.2121 164.055 67.4645C162.485 66.7169 159.772 65.6262 158.026 65.0404C156.28 64.4547 154.852 63.849 154.852 63.6946C154.852 63.5402 155.899 60.6756 157.179 57.3293C158.459 53.983 159.595 50.9651 159.704 50.6226L159.902 50H150.964C142.712 50 142.01 50.0371 141.828 50.4842ZM119.893 78.1528L114.868 78.2347L96.1132 127.687C85.7979 154.886 77.3004 177.296 77.2299 177.486C77.1294 177.757 78.8631 177.832 85.3192 177.832H93.5363L93.8084 177.071C93.9582 176.652 102.429 154.308 112.632 127.418C122.835 100.527 131.183 78.3952 131.183 78.2356C131.183 78.0471 130.088 77.9677 128.05 78.0084C126.328 78.0427 122.657 78.1077 119.893 78.1528ZM148.161 81.2144C147.841 82.0799 139.469 104.142 129.558 130.241L111.537 177.693L118.478 177.767C122.295 177.808 125.475 177.785 125.545 177.716C125.637 177.624 155.636 98.7783 160.372 86.1783L160.97 84.5884L158.68 83.4445C156.221 82.2158 152.545 80.7521 150.197 80.0656L148.743 79.6409L148.161 81.2144ZM174.245 97.0467C172.837 100.428 143.981 176.823 144.048 176.992C144.181 177.327 148.878 176.268 152.068 175.184C165.861 170.496 176.837 160.305 182.385 147.035C186.932 136.159 187.422 124.036 183.776 112.566C182.262 107.802 178.34 100.534 175.327 96.9084L174.645 96.0874L174.245 97.0467Z" fill="#141C54"/>
</svg>

<svg xmlns="http://www.w3.org/2000/svg" fill="none" viewBox="0 0 256 256"><path fill="#FBBB54" d="M128 256c70.934 0 128-57.066 128-128S198.934 0 128 0 0 57.066 0 128s57.066 128 128 128"/><path fill="#141C54" fill-rule="evenodd" d="M141.828 50.484a975 975 0 0 0-2.149 5.603l-1.952 5.119-11.358.072c-12.615.08-13.883-.044-19.403-1.897-1.404-.471-2.588-.814-2.629-.761-.042.053-.899 2.275-1.906 4.938S89.924 96.54 76.874 130.932c-13.049 34.393-23.787 62.751-23.864 63.017-.132.457.812.484 17.048.484 16.258 0 17.177.026 16.993.484-1.847 4.591-6.719 17.792-6.606 17.904.083.083 4.08.15 8.882.15h8.731l.284-.622c.156-.342 1.752-4.483 3.546-9.2l3.263-8.578 7.061-.073c5.607-.059 7.034-.002 6.93.276l-3.373 8.947c-1.784 4.728-3.243 8.744-3.243 8.923 0 .487 17.419.468 17.735-.018.124-.191 1.743-4.331 3.598-9.2l3.373-8.855 3.032-.177c15.551-.91 30.627-7.468 42.025-18.282 10.558-10.017 17.323-22.704 19.904-37.329.767-4.349 1.047-12.671.577-17.15-1.615-15.374-8.293-29.592-18.948-40.342-1.384-1.396-2.516-2.617-2.516-2.714s2.381-6.481 5.291-14.189 5.29-14.1 5.29-14.205-4.021-.158-8.936-.118l-8.936.073-3.506 9.27c-1.928 5.098-3.527 9.302-3.552 9.342-.026.04-1.332-.538-2.902-1.285-1.57-.748-4.283-1.839-6.029-2.425s-3.174-1.191-3.174-1.345c0-.155 1.047-3.02 2.327-6.366s2.416-6.364 2.525-6.706l.198-.623h-8.938c-8.252 0-8.954.037-9.136.484m-21.935 27.669-5.025.082-18.755 49.452a259815 259815 0 0 0-18.883 49.799c-.1.271 1.633.346 8.09.346h8.216l.272-.761c.15-.419 8.621-22.763 18.824-49.653 10.203-26.891 18.551-49.023 18.551-49.182 0-.189-1.095-.268-3.133-.228-1.722.035-5.393.1-8.157.145m28.268 3.061c-.32.866-8.692 22.928-18.603 49.027l-18.021 47.452 6.941.074c3.817.041 6.997.018 7.067-.051.092-.092 30.091-78.938 34.827-91.538l.598-1.59-2.29-1.143c-2.459-1.23-6.135-2.693-8.483-3.38l-1.454-.424zm26.084 15.833c-1.408 3.381-30.264 79.776-30.197 79.945.133.335 4.83-.724 8.02-1.808 13.793-4.688 24.769-14.879 30.317-28.149 4.547-10.876 5.037-22.999 1.391-34.469-1.514-4.764-5.436-12.032-8.449-15.658l-.682-.82z" clip-rule="evenodd"/></svg>
